plugin/src/main/resources/icons/action-apollo-monochrome_dark.svg

<?xml version="1.0" encoding="UTF-8" standalone="no"?>
<svg
    width="16"
    height="16"
    viewBox="-.03 -.03 1.2888 1.2888"
    preserveAspectRatio="xMidYMid"
    version="1.1"
    xmlns="http://www.w3.org/2000/svg"
>
  <path
      d="m 0.7690896,0.85689453 h 0.132624 L 0.69,0.3074364 H 0.5433648 L 0.3316512,0.85689453 H 0.4642848 L 0.4988832,0.7638222 h 0.20004 L 0.662712,0.66083298 H 0.531 L 0.61668,0.42441285 Z M 1.2064272,0.45008816 a 0.0318768,0.03187693 0 0 0 -0.039288,-0.0222097 0.0319104,0.03191053 0 0 0 -0.022215,0.0392786 0.5503008,0.55030296 0 0 1 0.020055,0.14724538 c 0,0.30359159 -0.2469888,0.55057166 -0.5505792,0.55057166 -0.3035904,0 -0.5505744,-0.24698007 -0.5505744,-0.55057166 0,-0.3035964 0.246984,-0.55058136 0.5505744,-0.55058136 0.1286064,0 0.2530464,0.04568658 0.3512592,0.1269893 a 0.0765024,0.0765027 0 0 0 -0.00594,0.0296305 c 0,0.0424082 0.0343773,0.0767859 0.0767856,0.0767859 0.042408,0 0.076786,-0.0343777 0.076786,-0.0767859 0,-0.0424082 -0.034377,-0.0767859 -0.076786,-0.0767859 -0.00816,0 -0.016023,0.001301 -0.023405,0.003663 C 0.9025056,0.05306901 0.7608624,0 0.6144,0 0.2756208,0 0,0.27561707 0,0.6144024 0,0.95318293 0.2756208,1.2288 0.6144,1.2288 c 0.3387792,0 0.6144,-0.27561707 0.6144,-0.6143976 A 0.61416,0.6141624 0 0 0 1.2064272,0.45008816 Z"
      fill="#AFB1B3" stroke-width=".04" stroke="#AFB1B3"
  />
</svg>

<?xml version="1.0" encoding="UTF-8"?>
<svg width="16" height="16" preserveAspectRatio="xMidYMid" version="1.1" viewBox="-.03 -.03 1.2888 1.2888"
     xmlns="http://www.w3.org/2000/svg">
  <path
      d="m0.75055 0.82782h0.11672l-0.18633-0.48359h-0.12906l-0.18633 0.48359h0.11673l0.030451-0.081915h0.17606l-0.03187-0.090643h-0.11592l0.075408-0.20808zm0.38491-0.35804a0.028055 0.028055 0 0 0-0.034578-0.019547 0.028085 0.028085 0 0 0-0.019552 0.03457 0.48433 0.48433 0 0 1 0.017651 0.12959c0 0.2672-0.21738 0.48457-0.48457 0.48457-0.2672 0-0.48457-0.21737-0.48457-0.48457 0-0.2672 0.21738-0.48458 0.48457-0.48458 0.11319 0 0.22271 0.04021 0.30915 0.11177a0.067331 0.067331 0 0 0-0.005228 0.026078c0 0.037324 0.030256 0.067581 0.06758 0.067581 0.037324 0 0.067581-0.030256 0.067581-0.067581 0-0.037324-0.030256-0.067581-0.067581-0.067581-0.00718 0-0.014102 0.001145-0.020599 0.003225-0.097336-0.082951-0.222-0.12966-0.3509-0.12966-0.29817 0-0.54074 0.24258-0.54074 0.54075 0 0.29817 0.24258 0.54074 0.54074 0.54074 0.29817 0 0.54074-0.24258 0.54074-0.54074a0.54053 0.54054 0 0 0-0.01969-0.14462z"
      fill="#CED0D6" stroke="#CED0D6" stroke-width=".046211" />
</svg>
